Simply-Red-Circles/scalable/apps/audacious.svg

<svg xmlns="http://www.w3.org/2000/svg" width="48" height="48" viewBox="0 0 12.7 12.7"><path fill="#a02c2c" d="M6.344.073a6.29 6.29 0 0 0-6.29 6.29 6.29 6.29 0 0 0 6.29 6.288 6.29 6.29 0 0 0 6.29-6.289 6.29 6.29 0 0 0-6.29-6.29zm-.018.936a5.407 5.407 0 0 1 5.407 5.407 5.407 5.407 0 0 1-5.407 5.407A5.407 5.407 0 0 1 .92 6.416 5.407 5.407 0 0 1 6.326 1.01zm.348 1.992v.003c-.113-.003-.228.002-.347.004-.706.03-1.955.003-2.442.58-.298.352-.159 1.168.297 1.253.568.106 1.53-.155 2.145-.09.43.044.556.389.206.629-.37.253-1.211.176-1.636.304-1.467.44-1.994 1.375-1.635 2.641.234.825 1.063 1.438 1.968 1.472 1.74-.002 1.416-.881 2.258-.424.278.32.836.422 1.126.197.466-.361 1.168-.555.672-1.295-.237-.354.316-.813.191-2.577-.11-1.564-1.11-2.637-2.803-2.697zm-.226 3.784c.392 0 .7.274.7.616 0 .341-.308.622-.7.622-.392 0-.716-.28-.716-.622 0-.342.324-.616.716-.616z"/></svg>

<?xml version="1.0" encoding="UTF-8" standalone="no"?>
<svg
   xmlns:dc="http://purl.org/dc/elements/1.1/"
   xmlns:cc="http://creativecommons.org/ns#"
   xmlns:rdf="http://www.w3.org/1999/02/22-rdf-syntax-ns#"
   xmlns:svg="http://www.w3.org/2000/svg"
   xmlns="http://www.w3.org/2000/svg"
   xmlns:sodipodi="http://sodipodi.sourceforge.net/DTD/sodipodi-0.dtd"
   xmlns:inkscape="http://www.inkscape.org/namespaces/inkscape"
   width="48"
   height="48"
   viewBox="0 0 12.7 12.7"
   version="1.1"
   id="svg4"
   sodipodi:docname="audacious.svg"
   inkscape:version="0.92.4 (5da689c313, 2019-01-14)">
  <metadata
     id="metadata10">
    <rdf:RDF>
      <cc:Work
         rdf:about="">
        <dc:format>image/svg+xml</dc:format>
        <dc:type
           rdf:resource="http://purl.org/dc/dcmitype/StillImage" />
        <dc:title></dc:title>
      </cc:Work>
    </rdf:RDF>
  </metadata>
  <defs
     id="defs8" />
  <sodipodi:namedview
     pagecolor="#ffffff"
     bordercolor="#666666"
     borderopacity="1"
     objecttolerance="10"
     gridtolerance="10"
     guidetolerance="10"
     inkscape:pageopacity="0"
     inkscape:pageshadow="2"
     inkscape:window-width="1087"
     inkscape:window-height="480"
     id="namedview6"
     showgrid="false"
     inkscape:zoom="4.9166667"
     inkscape:cx="2.1355932"
     inkscape:cy="24"
     inkscape:window-x="0"
     inkscape:window-y="25"
     inkscape:window-maximized="0"
     inkscape:current-layer="svg4" />
  <path
     d="m 6.344,0.073 a 6.29,6.29 0 0 0 -6.29,6.29 6.29,6.29 0 0 0 6.29,6.288 6.29,6.29 0 0 0 6.29,-6.289 6.29,6.29 0 0 0 -6.29,-6.29 z M 6.326,1.009 A 5.407,5.407 0 0 1 11.733,6.416 5.407,5.407 0 0 1 6.326,11.823 5.407,5.407 0 0 1 0.92,6.416 5.407,5.407 0 0 1 6.326,1.01 Z M 6.674,3.001 V 3.004 C 6.561,3.001 6.446,3.006 6.327,3.008 5.621,3.038 4.372,3.011 3.885,3.588 3.587,3.94 3.726,4.756 4.182,4.841 4.75,4.947 5.712,4.686 6.327,4.751 6.757,4.795 6.883,5.14 6.533,5.38 6.163,5.633 5.322,5.556 4.897,5.684 3.43,6.124 2.903,7.059 3.262,8.325 3.496,9.15 4.325,9.763 5.23,9.797 6.97,9.795 6.646,8.916 7.488,9.373 7.766,9.693 8.324,9.795 8.614,9.57 9.08,9.209 9.782,9.015 9.286,8.275 9.049,7.921 9.602,7.462 9.477,5.698 9.367,4.134 8.367,3.061 6.674,3.001 Z M 6.448,6.785 c 0.392,0 0.7,0.274 0.7,0.616 0,0.341 -0.308,0.622 -0.7,0.622 -0.392,0 -0.716,-0.28 -0.716,-0.622 0,-0.342 0.324,-0.616 0.716,-0.616 z"
     id="path2"
     inkscape:connector-curvature="0"
     style="fill:#a02c2c" />
</svg>
